public/logos/QF.svg

<?xml version="1.0" encoding="UTF-8"?>
<svg xmlns="http://www.w3.org/2000/svg" xmlns:xlink="http://www.w3.org/1999/xlink" width="176pt" height="32.33pt" viewBox="0 0 176 32.33" version="1.1">
<defs>
<clipPath id="clip1">
  <path d="M 0 0 L 40 0 L 40 32.328125 L 0 32.328125 Z M 0 0 "/>
</clipPath>
</defs>
<g id="surface1">
<path style=" stroke:none;fill-rule:nonzero;fill:rgb(23.9151%,28.468323%,31.274414%);fill-opacity:1;" d="M 142.734375 18.476562 L 137.894531 18.476562 C 138.136719 18.25 138.382812 18.019531 138.632812 17.78125 C 143.382812 13.210938 144.1875 13.539062 144.1875 13.539062 Z M 152.980469 9.554688 C 151.058594 9.332031 142.671875 7.6875 135.671875 13.984375 C 129.957031 19.121094 123.214844 25 123.214844 25 L 130.890625 25 C 130.890625 25 131.820312 24.148438 133.730469 22.375 L 141.710938 22.375 L 141.019531 25.003906 L 148.941406 25.003906 "/>
<path style=" stroke:none;fill-rule:nonzero;fill:rgb(23.9151%,28.468323%,31.274414%);fill-opacity:1;" d="M 71.628906 18.476562 L 66.789062 18.476562 C 67.03125 18.25 67.28125 18.019531 67.53125 17.78125 C 72.28125 13.210938 73.085938 13.539062 73.085938 13.539062 Z M 81.878906 9.554688 C 79.957031 9.332031 71.570312 7.6875 64.570312 13.984375 C 58.855469 19.121094 52.113281 25 52.113281 25 L 59.785156 25 C 59.785156 25 60.71875 24.148438 62.628906 22.375 L 70.605469 22.375 L 69.917969 25.003906 L 77.835938 25.003906 "/>
<path style=" stroke:none;fill-rule:nonzero;fill:rgb(23.9151%,28.468323%,31.274414%);fill-opacity:1;" d="M 109.75 9.40625 C 106.503906 9.40625 104.257812 10.519531 102.832031 12.722656 L 100.066406 17.113281 L 96.199219 9.402344 L 94.703125 9.40625 C 91.457031 9.40625 88.160156 11.457031 86.601562 13.875 L 79.332031 25.003906 L 86.835938 25.003906 L 91.757812 17.382812 L 95.554688 25.003906 L 102.28125 25.003906 L 112.339844 9.402344 "/>
<path style=" stroke:none;fill-rule:nonzero;fill:rgb(23.9151%,28.468323%,31.274414%);fill-opacity:1;" d="M 47.390625 17.359375 C 45.472656 19.945312 43.300781 21.816406 40.589844 21.6875 C 37.316406 21.539062 38.285156 19.378906 39.972656 17.289062 C 42.007812 14.769531 44.527344 12.609375 47.261719 12.722656 C 50.535156 12.855469 49.3125 14.765625 47.390625 17.359375 M 49.230469 9.070312 C 39.738281 9.070312 33.734375 13.449219 31.191406 17.421875 C 28.75 21.226562 31.109375 25.878906 40.265625 25.507812 C 40.265625 25.511719 42.125 27.667969 45.925781 27.785156 C 49.734375 27.902344 52.097656 25.011719 52.097656 25.011719 C 52.097656 25.011719 50.796875 25.40625 49.394531 25.257812 C 47.632812 25.070312 47.03125 24.171875 47.035156 24.171875 C 52.074219 22.285156 54.941406 19.917969 56.535156 17.421875 C 59.085938 13.449219 58.714844 9.070312 49.230469 9.070312 "/>
<path style=" stroke:none;fill-rule:nonzero;fill:rgb(23.9151%,28.468323%,31.274414%);fill-opacity:1;" d="M 118.550781 9.402344 C 115.261719 9.402344 112.929688 10.703125 111.914062 12.304688 L 111.070312 13.605469 L 118.546875 13.605469 L 111.1875 25.003906 L 119.375 25.003906 L 126.71875 13.621094 L 128.992188 13.566406 C 131.949219 13.566406 134.613281 12.269531 135.628906 10.667969 L 136.445312 9.40625 "/>
<path style=" stroke:none;fill-rule:nonzero;fill:rgb(23.9151%,28.468323%,31.274414%);fill-opacity:1;" d="M 165.609375 14.339844 C 171.492188 15.820312 174.09375 17.132812 173.765625 19.523438 C 173.277344 23.101562 167.511719 25.480469 160.40625 25.363281 C 153.304688 25.25 150.007812 23.054688 150.007812 23.054688 L 154.394531 19.804688 C 154.394531 19.804688 157.488281 21.277344 161.699219 21.34375 C 164.398438 21.390625 164.726562 20.808594 164.78125 20.640625 C 164.949219 20.148438 164.199219 19.949219 162.320312 19.390625 C 158.582031 18.277344 154.9375 17.191406 155.355469 14.136719 C 155.851562 10.5 162.410156 8.835938 168.097656 8.972656 C 172.039062 9.066406 176 10.359375 176 10.359375 C 174.429688 12.894531 171.730469 13.203125 170.738281 13.1875 C 169.390625 13.167969 168.296875 12.894531 166.253906 12.851562 C 164.582031 12.816406 164.042969 13.441406 164.320312 13.796875 C 164.527344 14.0625 164.828125 14.140625 165.609375 14.339844 "/>
<g clip-path="url(#clip1)" clip-rule="nonzero">
<path style=" stroke:none;fill-rule:nonzero;fill:rgb(93.493652%,17.680359%,16.902161%);fill-opacity:1;" d="M 0 32.328125 L 39.101562 32.328125 L 0 -0.00390625 "/>
</g>
<path style=" stroke:none;fill-rule:nonzero;fill:rgb(100%,100%,100%);fill-opacity:1;" d="M 0 8.355469 C 0.0078125 8.601562 0.0585938 9.136719 0.160156 9.421875 C 1.71875 13.8125 10.550781 12.078125 16.304688 19.472656 C 16.3125 19.472656 17.398438 19.582031 18.136719 18.390625 C 18.136719 18.390625 16.609375 18.285156 16.515625 17.25 C 16.515625 17.25 19.640625 17.808594 21.519531 19.179688 C 21.519531 19.179688 21.546875 19.789062 19.359375 19.800781 C 18.921875 19.828125 18.738281 19.851562 18.046875 20.464844 C 18.046875 20.464844 16.296875 22.175781 14.515625 22.148438 C 13.972656 22.132812 13.558594 21.945312 13.53125 21.800781 C 13.53125 21.800781 13.460938 21.59375 13.867188 21.667969 C 13.867188 21.667969 14.820312 21.898438 15.265625 21.53125 C 15.265625 21.53125 14.859375 21.003906 14.152344 21.011719 C 13.730469 20.988281 13.28125 21.117188 12.996094 21.464844 C 12.996094 21.464844 11.585938 23.0625 15.613281 24.742188 C 21.46875 27.046875 24.726562 30.441406 24.253906 31.320312 C 24.261719 31.324219 24.253906 31.320312 24.253906 31.320312 C 23.6875 30.953125 18.925781 25.625 10.726562 25.015625 C 10.726562 25.015625 10.769531 24.902344 10.800781 24.75 C 11.65625 21.0625 9.746094 18.566406 7.589844 17.140625 C 5.410156 15.558594 1.25 14.25 0 10.742188 "/>
</g>
</svg>

<svg xmlns="http://www.w3.org/2000/svg" width="176pt" height="43.107" viewBox="0 0 176 32.33"><defs><clipPath id="a"><path d="M0 0h40v32.328H0Zm0 0"/></clipPath></defs><path d="M142.734 18.477h-4.84q.364-.339.739-.696c4.75-4.57 5.554-4.242 5.554-4.242Zm10.246-8.922c-1.921-.223-10.308-1.867-17.308 4.43A1302 1302 0 0 1 123.215 25h7.676s.93-.852 2.84-2.625h7.98l-.691 2.629h7.921M71.629 18.477h-4.84q.365-.339.742-.696c4.75-4.57 5.555-4.242 5.555-4.242Zm10.25-8.922c-1.922-.223-10.309-1.867-17.309 4.43A1302 1302 0 0 1 52.113 25h7.672s.934-.852 2.844-2.625h7.976l-.687 2.629h7.918M109.75 9.406c-3.246 0-5.492 1.114-6.918 3.317l-2.766 4.39-3.867-7.71-1.496.003c-3.246 0-6.543 2.051-8.101 4.469l-7.27 11.129h7.504l4.922-7.621 3.797 7.62h6.726l10.059-15.6M47.39 17.36c-1.917 2.585-4.09 4.456-6.8 4.328-3.274-.149-2.305-2.31-.617-4.399 2.035-2.52 4.554-4.68 7.289-4.566 3.273.132 2.05 2.043.129 4.636m1.84-8.289c-9.493 0-15.497 4.38-18.04 8.352-2.441 3.805-.082 8.457 9.075 8.086 0 .004 1.859 2.16 5.66 2.277 3.808.117 6.172-2.773 6.172-2.773s-1.301.394-2.703.246c-1.762-.188-2.364-1.086-2.36-1.086 5.04-1.887 7.906-4.254 9.5-6.75 2.55-3.973 2.18-8.352-7.305-8.352M118.55 9.402c-3.288 0-5.62 1.301-6.636 2.903l-.844 1.3h7.477l-7.36 11.399h8.188l7.344-11.383 2.273-.055c2.957 0 5.621-1.296 6.637-2.898l.816-1.262M165.61 14.34c5.882 1.48 8.484 2.793 8.156 5.183-.489 3.579-6.254 5.957-13.36 5.84-7.101-.113-10.398-2.308-10.398-2.308l4.387-3.25s3.093 1.472 7.304 1.539c2.7.047 3.028-.535 3.082-.703.168-.493-.582-.692-2.46-1.25-3.739-1.114-7.383-2.2-6.966-5.254.497-3.637 7.055-5.301 12.743-5.164 3.941.093 7.902 1.386 7.902 1.386-1.57 2.536-4.27 2.844-5.262 2.829-1.347-.02-2.441-.293-4.484-.336-1.672-.036-2.211.59-1.934.945.207.265.508.344 1.29.543" style="stroke:none;fill-rule:nonzero;fill:#3d4950;fill-opacity:1"/><g clip-path="url(#a)"><path d="M0 32.328h39.102L0-.004" style="stroke:none;fill-rule:nonzero;fill:#ee2d2b;fill-opacity:1"/></g><path d="M0 8.355c.008.247.059.782.16 1.067 1.559 4.39 10.39 2.656 16.145 10.05.008 0 1.093.11 1.832-1.081 0 0-1.528-.106-1.621-1.141 0 0 3.125.559 5.004 1.93 0 0 .027.61-2.16.62-.438.028-.622.052-1.313.665 0 0-1.75 1.71-3.531 1.683-.543-.015-.957-.203-.985-.347 0 0-.07-.207.336-.133 0 0 .953.23 1.399-.137 0 0-.407-.527-1.114-.52-.422-.023-.87.106-1.156.454 0 0-1.41 1.598 2.617 3.277 5.856 2.305 9.114 5.7 8.64 6.578.009.004 0 0 0 0-.566-.367-5.327-5.695-13.526-6.304 0 0 .043-.114.074-.266.855-3.687-1.055-6.184-3.211-7.61C5.41 15.56 1.25 14.25 0 10.743" style="stroke:none;fill-rule:nonzero;fill:#fff;fill-opacity:1"/></svg>
